X: 3
T: Arran Boat Song
R: waltz
M: 3/4
L: 1/8
K: Emin
|: BD | E3 F E2 | B3 ^c d2 | A3 F D2 | A3 F D2 |
E3 F E2 | B3 ^c d2 | A F3 D2 | E4 :|
| Bd || e3 f e2 | g3 f e2 | d3 B G2 | A3 F D2 |
e3 f e2 | g3 f e2 | d B3 d2 | e4 ||
| e^d || e3 f e2 | g3 f e2 | d3 B G2 | A3 F D2 |
E3 F E2 | B3 ^c d2 | A F3 D2 | E4 ||


Tune 6478	Setting 22444

